svg/file-symlink-file.svg

<svg height="1024" width="768" xmlns="http://www.w3.org/2000/svg">
  <path d="M576 64h-576v896h768v-704l-192-192z m128 832h-640v-768h448l192 192v576z m-320-448c-149 0-256 111-256 320 32-136 131-192 256-192v128l256-192-256-192s0 79 0 128z" />
</svg>

<svg height="1024" width="768" xmlns="http://www.w3.org/2000/svg">
  <path d="M576 64H0v896h768V256L576 64zM704 896H64V128h448l192 192V896zM384 448c0 0-256 0-256 314.875C192 576 384 576 384 576v128l256-192L384 320V448z" />
</svg>
